X: 1
T: Connaughtman's Rambles, The
C: Trad.
M: 6/8
R: Jig
L: 1/8
S: Craig Harrison
K: D
|:FAA dAA|BAB dAG|FAA dfe|dBB B2A|
FAA dAA|BAA def|gfe f2e|1 dBB B2A:|2 dBB B3||
|:fbb faa|fef d2e|fbb faa|fed e2g|
fbb faa|fef def|gfe f2e|1 dBB B3:|2 dBB BAG||
